styles/4/Numix/22/places/red-folder-recent.svg

<?xml version="1.0" encoding="UTF-8" standalone="no"?>
<!-- Created with Inkscape (http://www.inkscape.org/) -->

<svg
   xmlns:dc="http://purl.org/dc/elements/1.1/"
   xmlns:cc="http://creativecommons.org/ns#"
   xmlns:rdf="http://www.w3.org/1999/02/22-rdf-syntax-ns#"
   xmlns:svg="http://www.w3.org/2000/svg"
   xmlns="http://www.w3.org/2000/svg"
   xmlns:sodipodi="http://sodipodi.sourceforge.net/DTD/sodipodi-0.dtd"
   xmlns:inkscape="http://www.inkscape.org/namespaces/inkscape"
   width="22"
   height="22"
   id="svg2"
   version="1.1"
   inkscape:version="0.91 r"
   sodipodi:docname="red-folder-recent.svg"
   inkscape:export-filename="/media/Data/Main/Visuals/Icons/Numix/Desktop/repos/numix-wiki/Gjorgi/Numix-folders/48/New/folder-144.png"
   inkscape:export-xdpi="270"
   inkscape:export-ydpi="270">
  <defs
     id="defs4" />
  <sodipodi:namedview
     id="base"
     pagecolor="#ffffff"
     bordercolor="#666666"
     borderopacity="1.0"
     inkscape:pageopacity="0.0"
     inkscape:pageshadow="2"
     inkscape:zoom="27.860007"
     inkscape:cx="5.2127785"
     inkscape:cy="9.7526801"
     inkscape:document-units="px"
     inkscape:current-layer="layer1"
     showgrid="true"
     inkscape:window-width="1280"
     inkscape:window-height="998"
     inkscape:window-x="0"
     inkscape:window-y="0"
     inkscape:window-maximized="1"
     showguides="true"
     inkscape:guide-bbox="true">
    <inkscape:grid
       type="xygrid"
       id="grid2985"
       empspacing="5"
       visible="true"
       enabled="true"
       snapvisiblegridlinesonly="true" />
  </sodipodi:namedview>
  <metadata
     id="metadata7">
    <rdf:RDF>
      <cc:Work
         rdf:about="">
        <dc:format>image/svg+xml</dc:format>
        <dc:type
           rdf:resource="http://purl.org/dc/dcmitype/StillImage" />
        <dc:title />
      </cc:Work>
    </rdf:RDF>
  </metadata>
  <g
     inkscape:label="Layer 1"
     inkscape:groupmode="layer"
     id="layer1"
     transform="translate(0,-1030.3622)">
    <path
       inkscape:connector-curvature="0"
       id="path2998"
       d="m 2,1032.3622 17,0 c 1,0 2,1 2,2 l 0,4 c 0,1.108 -0.446,2 -1,2 l -18,0 c -0.554,0 -1,-0.892 -1,-2 l 0,-6 z"
       style="fill:#d32f2f;fill-opacity:1;stroke:none"
       sodipodi:nodetypes="csssssscc" />
    <path
       style="opacity:0.02999998;fill:#000000;fill-opacity:1;stroke:none"
       d="m 1,1034.3622 0,5 20,0 0,-5 z"
       id="path3807"
       inkscape:connector-curvature="0" />
    <rect
       style="fill:#ef5350;fill-opacity:1;stroke:none"
       id="rect2990"
       width="22"
       height="17"
       x="0"
       y="1035.3622"
       rx="2"
       ry="2" />
    <path
       sodipodi:nodetypes="csssscc"
       inkscape:connector-curvature="0"
       id="path3000"
       d="m 1,1033.3622 0,-1 c 0,-1 0,-2 1,-2 l 4,0 c 1,0 1,1 1,2 l 0,1 z"
       style="fill:#d32f2f;fill-opacity:1;stroke:none" />
    <path
       style="opacity:0.05;fill:#000000;fill-opacity:1;stroke:none"
       d="m 7,1032.3622 0,1 1,0 11,0 c 1,0 2,1 2,2 l 0,-1 c 0,-1 -1,-2 -2,-2 l -11,0 z"
       id="path3002"
       inkscape:connector-curvature="0"
       sodipodi:nodetypes="cccscsscc" />
    <path
       style="opacity:0.05;fill:#000000;fill-opacity:1;stroke:none"
       d="m 2,1030.3622 c -1,0 -1,1 -1,2 l 0,0.25 c 0.046875,-0.7031 0.25,-1.25 1,-1.25 l 4,0 c 0.75,0 0.953125,0.5469 1,1.25 l 0,-0.25 c 0,-1 0,-2 -1,-2 l -4,0 z"
       id="path3780"
       inkscape:connector-curvature="0" />
    <path
       style="opacity:0.1;fill:#ffffff;fill-opacity:1;stroke:none"
       d="m 2,1035.3622 c -0.7419013,0 -1.3734731,0.4031 -1.71875,1 l 21.4375,0 c -0.345277,-0.5969 -0.976849,-1 -1.71875,-1 l -18,0 z"
       id="rect2991"
       inkscape:connector-curvature="0" />
    <path
       style="opacity:1.0;fill:#ab3634;fill-opacity:1;stroke:none"
       d="M 6 9 L 6 13 L 10 13 L 8.90625 11.90625 C 9.4481294 11.361885 10.171092 11 11 11 C 12.656854 11 14 12.3431 14 14 C 14 15.6569 12.656854 17 11 17 C 10.115532 17 9.3303238 16.6089 8.78125 16 L 6.4375 16 C 7.2117722 17.7595 8.9543075 19 11 19 C 13.761424 19 16 16.7614 16 14 C 16 11.2386 13.761424 9 11 9 C 9.6175594 9 8.4002865 9.5896426 7.5 10.5 L 6 9 z "
       transform="translate(0,1030.3622)"
       id="path3910" />
  </g>
</svg>

<!-- Created with Inkscape (http://www.inkscape.org/) -->
<svg xmlns="http://www.w3.org/2000/svg" viewBox="0 0 22 22">
 <g transform="translate(0,-1030.3622)">
  <path d="m 2 1032.36 17 0 c 1 0 2 1 2 2 l 0 4 c 0 1.108 -0.446 2 -1 2 l -18 0 c -0.554 0 -1 -0.892 -1 -2 l 0 -6 z" style="fill:#d32f2f;fill-opacity:1;stroke:none"/>
  <path d="m 1 1034.36 0 5 20 0 0 -5 z" style="fill:#000;opacity:0.03;fill-opacity:1;stroke:none"/>
  <rect width="22" height="17" y="1035.36" rx="2" style="fill:#ef5350;fill-opacity:1;stroke:none"/>
  <path d="m 1 1033.36 0 -1 c 0 -1 0 -2 1 -2 l 4 0 c 1 0 1 1 1 2 l 0 1 z" style="fill:#d32f2f;fill-opacity:1;stroke:none"/>
  <path d="m 7 1032.36 0 1 1 0 11 0 c 1 0 2 1 2 2 l 0 -1 c 0 -1 -1 -2 -2 -2 l -11 0 z" style="fill:#000;opacity:0.05;fill-opacity:1;stroke:none"/>
  <path d="m 2 1030.36 c -1 0 -1 1 -1 2 l 0 0.25 c 0.047 -0.703 0.25 -1.25 1 -1.25 l 4 0 c 0.75 0 0.953 0.547 1 1.25 l 0 -0.25 c 0 -1 0 -2 -1 -2 l -4 0 z" style="fill:#000;opacity:0.05;fill-opacity:1;stroke:none"/>
  <path d="m 2 1035.36 c -0.742 0 -1.373 0.403 -1.719 1 l 21.438 0 c -0.345 -0.597 -0.977 -1 -1.719 -1 l -18 0 z" style="fill:#fff;opacity:0.1;fill-opacity:1;stroke:none"/>
  <path d="m 6 9 l 0 4 l 4 0 l -1.094 -1.094 c 0.542 -0.544 1.265 -0.906 2.094 -0.906 c 1.657 0 3 1.343 3 3 c 0 1.657 -1.343 3 -3 3 c -0.884 0 -1.67 -0.391 -2.219 -1 l -2.344 0 c 0.774 1.759 2.517 3 4.563 3 c 2.761 0 5 -2.239 5 -5 c 0 -2.761 -2.239 -5 -5 -5 c -1.382 0 -2.6 0.59 -3.5 1.5 l -1.5 -1.5 z" transform="translate(0,1030.3622)" style="fill:#ab3634;opacity:1;fill-opacity:1;stroke:none"/>
 </g>
</svg>
